packages/foundations/assets/icons/functional/images/layout/fullscreen_28.svg

<svg width="28" height="28" viewBox="0 0 28 28" fill="none" xmlns="http://www.w3.org/2000/svg">
<g clip-path="url(#clip0_185_1321)">
<path fill-rule="evenodd" clip-rule="evenodd" d="M2.625 24.5V18.375C2.625 17.8547 2.98051 17.5 3.5 17.5C4.01957 17.5 4.375 17.8504 4.375 18.375V23.625H9.625C10.1172 23.625 10.5 23.9804 10.5 24.5C10.5 24.9922 10.1719 25.375 9.625 25.375H3.5C2.98051 25.375 2.625 25.021 2.625 24.5ZM25.375 24.5C25.375 25.021 25.0196 25.375 24.5 25.375H18.375C17.8281 25.375 17.5 24.9922 17.5 24.5C17.5 23.9804 17.8828 23.625 18.375 23.625H23.625V18.375C23.625 17.8504 23.9805 17.5 24.5 17.5C25.0196 17.5 25.375 17.8547 25.375 18.375V24.5ZM25.375 3.5V9.625C25.375 10.1453 25.0196 10.5 24.5 10.5C23.9805 10.5 23.625 10.1496 23.625 9.625V4.375H18.375C17.8828 4.375 17.5 4.01957 17.5 3.5C17.5 3.00781 17.8281 2.625 18.375 2.625H24.5C25.0196 2.625 25.375 2.97903 25.375 3.5ZM2.625 3.5C2.625 2.97903 2.98051 2.625 3.5 2.625H9.625C10.1719 2.625 10.5 3.00781 10.5 3.5C10.5 4.01957 10.1172 4.375 9.625 4.375H4.375V9.625C4.375 10.1496 4.01957 10.5 3.5 10.5C2.98051 10.5 2.625 10.1453 2.625 9.625V3.5Z" fill="#1A1C1F"/>
</g>
<defs>
<clipPath id="clip0_185_1321">
<rect width="28" height="28" fill="white"/>
</clipPath>
</defs>
</svg>

<svg xmlns="http://www.w3.org/2000/svg" width="28" height="28" fill="none"><g clip-path="url(#a)"><path fill="#1A1C1F" fill-rule="evenodd" d="M2.625 24.5v-6.125c0-.52.356-.875.875-.875.52 0 .875.35.875.875v5.25h5.25c.492 0 .875.355.875.875 0 .492-.328.875-.875.875H3.5c-.52 0-.875-.354-.875-.875m22.75 0c0 .521-.355.875-.875.875h-6.125c-.547 0-.875-.383-.875-.875 0-.52.383-.875.875-.875h5.25v-5.25c0-.525.355-.875.875-.875s.875.355.875.875zm0-21v6.125c0 .52-.355.875-.875.875s-.875-.35-.875-.875v-5.25h-5.25c-.492 0-.875-.355-.875-.875 0-.492.328-.875.875-.875H24.5c.52 0 .875.354.875.875m-22.75 0c0-.521.356-.875.875-.875h6.125c.547 0 .875.383.875.875 0 .52-.383.875-.875.875h-5.25v5.25c0 .525-.355.875-.875.875s-.875-.355-.875-.875z" clip-rule="evenodd"/></g><defs><clipPath id="a"><path fill="#fff" d="M0 0h28v28H0z"/></clipPath></defs></svg>
